assets/images/icons/auction.svg

<svg fill="none" height="20" viewBox="0 0 20 20" width="20" xmlns="http://www.w3.org/2000/svg" xmlns:xlink="http://www.w3.org/1999/xlink"><clipPath id="a"><path d="m0 0h20v20h-20z"/></clipPath><g clip-path="url(#a)" fill="#878181" fill-opacity=".75"><path d="m18.6868 17.3909h-6.5229c-.7205 0-1.3045.584-1.3045 1.3045v.6523c0 .3602.292.6523.6522.6523h7.8275c.3602 0 .6522-.2921.6522-.6523v-.6523c.0001-.7205-.584-1.3045-1.3045-1.3045z"/><path d="m11.3844.382148c-.5096-.509609-1.3351-.509375-1.84471-.000234l-3.80543 3.805196c-.50961.50961-.50961 1.33559 0 1.84496.50961.50961 1.335.50949 1.84472.00023l3.80542-3.80519c.5096-.50961.5096-1.335587 0-1.844962z"/><path d="m18.7634 7.76108c-.5096-.50918-1.3352-.50938-1.8447.00023l-3.805 3.80519c-.5097.5094-.5097 1.3354 0 1.845.5097.5093 1.3351.5093 1.8447-.0003l3.805-3.80516c.5096-.50941.5096-1.33535 0-1.84496z"/><path d="m12.2492 3.20715-3.68987 3.68961 3.68947 3.68954 3.6897-3.68993z"/><path d="m8.09802 8.28052-7.518713 7.51868c-.761016.761-.761016 2.0047 0 2.7657l.004336.0043c.786757.7778 2.023127.7423 2.761327-.0043l7.52053-7.5168z"/></g></svg>

<svg width="20" height="20" viewBox="0 0 20 20" fill="none" xmlns="http://www.w3.org/2000/svg">
<g clip-path="url(#clip0_371_13919)">
<path d="M18.6868 17.3909H12.1639C11.4434 17.3909 10.8594 17.9749 10.8594 18.6954V19.3477C10.8594 19.7079 11.1514 20 11.5116 20H19.3391C19.6993 20 19.9913 19.7079 19.9913 19.3477V18.6954C19.9914 17.9749 19.4073 17.3909 18.6868 17.3909Z" fill="#878181" fill-opacity="0.75"/>
<path d="M11.3844 0.382148C10.8748 -0.127461 10.0493 -0.127227 9.53969 0.381914L5.73426 4.18711C5.22465 4.69672 5.22465 5.5227 5.73426 6.03207C6.24387 6.54168 7.06926 6.54156 7.57898 6.0323L11.3844 2.22711C11.894 1.7175 11.894 0.891523 11.3844 0.382148Z" fill="#878181" fill-opacity="0.75"/>
<path d="M18.7634 7.76108C18.2538 7.2519 17.4282 7.2517 16.9187 7.76131L13.1137 11.5665C12.604 12.0759 12.604 12.9019 13.1137 13.4115C13.6234 13.9208 14.4488 13.9208 14.9584 13.4112L18.7634 9.60604C19.273 9.09663 19.273 8.27069 18.7634 7.76108Z" fill="#878181" fill-opacity="0.75"/>
<path d="M12.2492 3.20715L8.55933 6.89676L12.2488 10.5863L15.9385 6.89637L12.2492 3.20715Z" fill="#878181" fill-opacity="0.75"/>
<path d="M8.09802 8.28052L0.579307 15.7992C-0.181709 16.5602 -0.181709 17.8039 0.579307 18.5649L0.583643 18.5692C1.3704 19.347 2.60677 19.3115 3.34497 18.5649L10.8655 11.0481L8.09802 8.28052Z" fill="#878181" fill-opacity="0.75"/>
</g>
<defs>
<clipPath id="clip0_371_13919">
<rect width="20" height="20" fill="white"/>
</clipPath>
</defs>
</svg>
